X:019
T:Siciliano TS.019
M:6/8
L:1/8
Q:3/8=100
S:Thomas Sands’ MS,1810,Lincolnshire
R:siciliano
C:Prefixed as ‘No.7′ in MS
O:England;Lincolnshire
Z:vmp.Ruairidh Greig, 2011
K:C
“_p”E2F GFE|D2E FED|E2F GFE|DDDD2f|
e2f gfe|d2e fed|ege fdB|[cE][cE][cE] [c3E3]:|
|:[d2D6]c BAB|[c2D6]BA2c|[BD6]dBA2d|[B2D2][GB,][G2B,2](c//d//e//f//)|
g2g efg|f2f def|egc’ efd|c2cc2:|]

